X:152
T:AIR XXX. Muirland Willy.
O:england
B:Joseph Mitchell: "The Highland Fair" (1731)
M:6/4
L:1/4
K:Dmin
FFD  F2 G|(AG)A  c2    A| F2  F c2 B/A/  |G2F  E2(D/^C/)|\
D2D  F2 G|(AG)A  f2    e|(d^c)d A2(d/^c/)|d3 - d2 A     |
d2d (de)f| A2 A (A/B/)c2| F G F c2(B/A/) |G2F  E2 D/^C/ |\
D2D  F2 G| A>BA  f2    e| d^cd  A2(d/^c/)|d3 - d2      |]


